icons/print.svg

<?xml version="1.0" encoding="UTF-8"?>
<svg width="50" height="50" version="1.1" viewBox="0 0 50 50" xmlns="http://www.w3.org/2000/svg">
<path d="m15 5c-2.5 0-2.5 2.5-2.5 2.5v2.5h25v-2.5s0-2.5-2.5-2.5zm-5 7.5s-5 0-5 5v12.5s0 2.5 2.5 2.5h2.5v-7.5h30v7.5h2.5s2.5 0 2.5-2.5v-12.5s0-5-5-5zm28.75 3.75c1.3807 0 2.5 1.1193 2.5 2.5s-1.1193 2.5-2.5 2.5-2.5-1.1193-2.5-2.5 1.1193-2.5 2.5-2.5zm-26.25 11.25v15s0 2.5 2.5 2.5h20c2.5 0 2.5-2.5 2.5-2.5v-15z"/>
</svg>

<?xml version="1.0" encoding="UTF-8" standalone="no"?>
<svg
   xmlns:dc="http://purl.org/dc/elements/1.1/"
   xmlns:cc="http://creativecommons.org/ns#"
   xmlns:rdf="http://www.w3.org/1999/02/22-rdf-syntax-ns#"
   xmlns:svg="http://www.w3.org/2000/svg"
   xmlns="http://www.w3.org/2000/svg"
   id="svg4"
   viewBox="0 0 50 50"
   version="1.1"
   width="50"
   height="50">
  <metadata
     id="metadata10">
    <rdf:RDF>
      <cc:Work
         rdf:about="">
        <dc:format>image/svg+xml</dc:format>
        <dc:type
           rdf:resource="http://purl.org/dc/dcmitype/StillImage" />
        <dc:title></dc:title>
      </cc:Work>
    </rdf:RDF>
  </metadata>
  <defs
     id="defs8" />
  <path
     id="path2847"
     d="M 15,5 C 12.5,5 12.5,7.5 12.5,7.5 V 10 h 25 V 7.5 c 0,0 0,-2.5 -2.5,-2.5 z m -5,7.5 c 0,0 -5,0 -5,5 V 30 c 0,0 0,2.5 2.5,2.5 H 10 V 25 h 30 v 7.5 h 2.5 c 0,0 2.5,0 2.5,-2.5 V 17.5 c 0,0 0,-5 -5,-5 z m 28.75,3.75 c 1.380712,0 2.5,1.119288 2.5,2.5 0,1.380712 -1.119288,2.5 -2.5,2.5 -1.380712,0 -2.5,-1.119288 -2.5,-2.5 0,-1.380712 1.119288,-2.5 2.5,-2.5 z M 12.5,27.5 v 15 c 0,0 0,2.5 2.5,2.5 h 20 c 2.5,0 2.5,-2.5 2.5,-2.5 v -15 z" />
</svg>
